X:53
T:Last Tango in Tarrytown
R:reel
C: 1987, 2010 L.E. McCullough 
M:4/4 
L:1/8
K:D
|:~f3e dBAF|EFDE F~A3|B~e3 fedB|defd ~e3d|
~f3e dBAF|EFDE F~A3|B~g3 fedc|d~f3 d2de:| 
|:fBBA Bcdf|eAAG A2de|fBBA Bcdf|~a3g ~f3e|
fBBA Bcdf|eAAG AGEF|~G2Bd fedc|d~f3 d2de:|
<end>
<start>
